X:862
T:Six Twenty Two Step, The 
C:Joe Buchanan's Scottish Tome - Page 421.0
I:421 0
R:Two-step
Z:Carl Allison
L:1/8
M:6/8
K:G
D2 |: G2 G F>GA | G2 G G2 G | B2 B A>Bc | B3- B2 B |
c2 c A2 c | B2 B G2 B | A>BA G>FE | D3 DEF |
G2 G F>GA | G2 G G2 G | B2 B A>Bc | B3- B2 B |
[1"INTRO" c2 A F2 e | d c B d | d>ed c>BA |1 G z D |2 G z A |]
|: A2 B B2 A | Afd A3 | A2 f fef | g3- g A/A/ |
A2 e e2 d | d2 c c2 c | ded c2 B | B2 _B A2 A |
A2 B B2 A | Afd A3 | a2 d d2 c | B3- B B/B/ |
B2 g g2 B | A2 f f2 d | c2 A A>Bc |1 d3- d2 A2 :|2  d3 z D2 |]
G2 G F>GA | G2 G G2 G | B2 B A>Bc | B3- B2 B |
c2 c A2 c | B2 B G2 B | A>BA G>FE | D3 DEF |
G2 G F>GA | G2 G G2 G | B2 B A>Bc | B3- B2 B |
c2 A F2 e | d2 c B2 d | ded cBA | G GF=F |][K:C]
%%newpage
T:Six Twenty Two Step (cont), The
E3 B,3 | C3 E3 | A2 G G2 ^F | G3- G3 |
E3 B,3 | C2 E A2 G | G3- G3 | B,3- B,3 |
D3 ^C3 | D2 A, F2 E | D D ^CDE | D3- D3 |
D2 ^D E2 F | ^F2 c B2 A | G g ag^f | g3 G^F=F |
E3 B,3 | C3 E3 | A2 G G2 F | G3- G3 |
e3 c3 | G3 E3 | B2 A A2 G | A3- A3 |
f2 e d2 ^c | d g | e2 d cBA | G3- G2 ^G |
A2 c cBA | G2 e e2 c | BAG FED/ | C3 z D2 |]
G2 G F>GA | G2 G G2 G | B2 B A>Bc | B3- B2 B |
c2 c A2 c | B2 B G2 B | A>BA G>FE | D3 DEF |
G2 G F>GA | G2 G G2 G | B2 B ABc | B3- B2 B |
c2 A F2 e |  d2 c B2 d |  d>ed c>BA | G3- G2 |]

